img/icon_youtube.svg

<svg height="24" viewBox="0 0 24 24" width="24" xmlns="http://www.w3.org/2000/svg"><path d="m21.582 6.186c-.23-.86-.908-1.538-1.768-1.768-1.56-.418-7.814-.418-7.814-.418s-6.254 0-7.814.418c-.86.23-1.538.908-1.768 1.768-.418 1.56-.418 5.814-.418 5.814s0 4.254.418 5.814c.23.86.908 1.538 1.768 1.768 1.56.418 7.814.418 7.814.418s6.254 0 7.814-.418c.861-.23 1.538-.908 1.768-1.768.418-1.56.418-5.814.418-5.814s0-4.254-.418-5.814zm-11.582 9.278v-6.928l6 3.464z"/></svg>

<?xml version="1.0"?>
<svg xmlns="http://www.w3.org/2000/svg" viewBox="0 0 24 24" width="24px" height="24px">
    <path d="M21.582,6.186c-0.23-0.86-0.908-1.538-1.768-1.768C18.254,4,12,4,12,4S5.746,4,4.186,4.418 c-0.86,0.23-1.538,0.908-1.768,1.768C2,7.746,2,12,2,12s0,4.254,0.418,5.814c0.23,0.86,0.908,1.538,1.768,1.768 C5.746,20,12,20,12,20s6.254,0,7.814-0.418c0.861-0.23,1.538-0.908,1.768-1.768C22,16.254,22,12,22,12S22,7.746,21.582,6.186z M10,15.464V8.536L16,12L10,15.464z"/>
</svg>
